src/assets/icons/users.svg

<svg width="24" height="24" viewBox="0 0 24 24" fill="none" xmlns="http://www.w3.org/2000/svg">
<path fill-rule="evenodd" clip-rule="evenodd" d="M8.25 6.75C8.25 4.67893 9.92893 3 12 3C14.0711 3 15.75 4.67893 15.75 6.75C15.75 8.82107 14.0711 10.5 12 10.5C9.92893 10.5 8.25 8.82107 8.25 6.75Z" fill="#A685FA"/>
<path fill-rule="evenodd" clip-rule="evenodd" d="M15.75 9.75C15.75 8.09315 17.0931 6.75 18.75 6.75C20.4069 6.75 21.75 8.09315 21.75 9.75C21.75 11.4069 20.4069 12.75 18.75 12.75C17.0931 12.75 15.75 11.4069 15.75 9.75Z" fill="#A685FA"/>
<path fill-rule="evenodd" clip-rule="evenodd" d="M2.25 9.75C2.25 8.09315 3.59315 6.75 5.25 6.75C6.90685 6.75 8.25 8.09315 8.25 9.75C8.25 11.4069 6.90685 12.75 5.25 12.75C3.59315 12.75 2.25 11.4069 2.25 9.75Z" fill="#A685FA"/>
<path fill-rule="evenodd" clip-rule="evenodd" d="M6.30986 15.1175C7.50783 13.2444 9.60835 12 12 12C14.3919 12 16.4927 13.2447 17.6906 15.1182C18.5187 16.4134 18.877 17.9752 18.709 19.4979C18.6827 19.7359 18.5444 19.947 18.3368 20.0662C16.4694 21.1376 14.3051 21.75 12 21.75C9.69492 21.75 7.53059 21.1376 5.66325 20.0662C5.45559 19.947 5.3173 19.7359 5.29103 19.4979C5.12293 17.9749 5.48141 16.4129 6.30986 15.1175Z" fill="#A685FA"/>
<path d="M5.08228 14.2537C5.07024 14.2722 5.05827 14.2907 5.04638 14.3093C4.08091 15.8189 3.63908 17.6167 3.77471 19.389C3.16667 19.2967 2.5767 19.1481 2.01043 18.9487L1.89547 18.9082C1.68576 18.8343 1.53923 18.6439 1.52159 18.4222L1.51192 18.3007C1.50402 18.2014 1.5 18.1011 1.5 18C1.5 15.9851 3.08905 14.3414 5.08228 14.2537Z" fill="#A685FA"/>
<path d="M20.2256 19.389C20.3612 17.617 19.9196 15.8196 18.9545 14.3102C18.9425 14.2913 18.9303 14.2725 18.9181 14.2537C20.9111 14.3416 22.5 15.9853 22.5 18C22.5 18.1011 22.496 18.2014 22.4881 18.3007L22.4784 18.4222C22.4608 18.6439 22.3142 18.8343 22.1045 18.9082L21.9896 18.9487C21.4234 19.1481 20.8336 19.2966 20.2256 19.389Z" fill="#A685FA"/>
</svg>

<svg xmlns="http://www.w3.org/2000/svg" width="24" height="24" fill="none" xmlns:v="https://vecta.io/nano"><path d="M8.25 6.75a3.75 3.75 0 1 1 7.5 0 3.75 3.75 0 1 1-7.5 0zm7.5 3a3 3 0 1 1 6 0 3 3 0 1 1-6 0zm-13.5 0a3 3 0 1 1 6 0 3 3 0 1 1-6 0zm4.06 5.368C7.508 13.244 9.608 12 12 12s4.493 1.245 5.691 3.118a6.79 6.79 0 0 1 1.018 4.38.75.75 0 0 1-.372.568C16.469 21.138 14.305 21.75 12 21.75s-4.469-.612-6.337-1.684a.75.75 0 0 1-.372-.568c-.168-1.523.19-3.085 1.019-4.38z" fill-rule="evenodd" fill="#a685fa"/><path d="M5.082 14.254l-.036.056c-.965 1.51-1.407 3.307-1.272 5.08-.608-.092-1.198-.241-1.764-.44l-.115-.04c-.21-.074-.356-.264-.374-.486l-.01-.122L1.5 18a3.75 3.75 0 0 1 3.582-3.746zm15.144 5.135c.136-1.772-.306-3.569-1.271-5.079l-.036-.056A3.75 3.75 0 0 1 22.5 18l-.012.301-.01.122c-.018.222-.164.412-.374.486l-.115.04a9.69 9.69 0 0 1-1.764.44z" fill="#a685fa"/></svg>
